X:1
T:Spiritus Domini
T:Joachim Kelecom (*1977)
T:Spiritus Domini
T:Office hymn for Lauds at Pentecost
C:Joachim Kelecom (*1977)
%%score [ 1 2 3 4 ]
L:1/8
Q:1/4=120
M:none
K:G
V:1 treble nm="Soprano" snm="S"
V:2 treble nm="Alto" snm="A"
V:3 treble-8 nm="solo" snm="T"
V:4 bass nm="Bass" snm="B"
V:1
 z14 ||[M:6/8] G2 d G3 | G2 d G3 | d3 (cB)A | G2 d G2 G | e3 d3 | cBA BGG | e3 d3 | cBc ddd | %9
w: |Do- mi- ni,|Do- mi- ni,|Spi- ri- * tus|Do- mi- ni re-|ple- vit|or- bem ter- ra- rum, re-|ple- vit|or- bem ter- ra- rum, re-|
 =f3 e3 | edc d2 !fermata!d!fine! |:"^B" ddd GAB | (cBc) d2 d | =f2 f edc | d3 d3 :| %15
w: ple- vit|or- bem ter- ra- rum!|Al- le- lu- ia, al- le-|lu- * * ia, al-|le- lu- ia, al- le-|lu- ia.|
"^Recitativo" !stemless!B2 !stemless!B2 !stemless!B2 !stemless!B2 !stemless!B2 !stemless!B2 !stemless!c2 !stemless!B2 !stemless!A4 !stemless!B4 | %16
w: Iu- bi- la- te De- o om- nis ter- ra;|
 !stemless!B2 !stemless!B2 !stemless!B2 !stemless!B2 !stemless!B2 !stemless!B2 !stemless!A2 !stemless!G2 !stemless!A4 !stemless!G2 !stemless!G4 || %17
w: ser- vi- te Do- mi- no in lae- ti- ti- a.|
 !stemless!B2 !stemless!B2 !stemless!B2 !stemless!c2 !stemless!B2 !stemless!B2 !stemless!A2 !stemless!B2 !stemless!B4 | %18
w: Glo- ri- a Pa- tri et Fi- li- o|
"^B" !stemless!B2 !stemless!B2 !stemless!B2 !stemless!A2 !stemless!G2 (!stemless!A2 !stemless!G2) !stemless!G4 || %19
w: et Spi- ri- tu- i Sanc- * to.|
[M:6/8] d3 G3 | (AGA) BAB | c2 c B2 d | (cB)G FAA | Bcd =f2 f | (ed)c (dBG) | !breath!A3 c3 | %26
w: Si- cut|e- * * rat in prin-|ci- pi- o et|nunc _ et sem- per, in|sae- cu- la sae- cu-|lo- * rum, a- * *|men, a-|
"^A" d6 |] %27
w: men.|
V:2
 z14 ||[M:6/8] z6 | z6 | G2 d G3 | G2 d G3 | d3 (cB)A | G2 d G2 G | c3 B3 | AGA BBB | A3 G3 | %10
w: |||Do- mi- ni,|Do- mi- ni,|Spi- ri- * tus|Do- mi- ni re-|ple- vit|or- bem ter- ra- rum, re-|ple- vit|
 GGG F2 !fermata!F |: z6 | GGG GA_B | c2 c (cB)G | A3 A3 :| %15
w: or- bem ter- ra- rum!||Al- le- lu- ia, al- le-|lu- ia, al- * le-|lu- ia.|
 !stemless!G2 !stemless!G2 !stemless!G2 !stemless!G2 !stemless!G2 !stemless!G2 !stemless!A2 !stemless!G2 !stemless!F4 !stemless!G4 | %16
w: Iu- bi- la- te De- o om- nis ter- ra;|
 !stemless!G2 !stemless!G2 !stemless!G2 !stemless!G2 !stemless!G2 !stemless!G2 !stemless!F2 !stemless!E2 !stemless!F4 !stemless!D2 !stemless!D4 || %17
w: ser- vi- te Do- mi- no in lae- ti- ti- a.|
 !stemless!G2 !stemless!G2 !stemless!G2 !stemless!A2 !stemless!G2 !stemless!G2 !stemless!F2 !stemless!G2 !stemless!G4 | %18
w: Glo- ri- a Pa- tri et Fi- li- o|
 !stemless!G2 !stemless!G2 !stemless!G2 !stemless!F2 !stemless!E2 (!stemless!F2 !stemless!D2) !stemless!D4 || %19
w: et Spi- ri- tu- i Sanct- * to.|
[M:6/8] z6 | d3 G3 | (AGA) BAB | c2 c B2 d | BAG =F2 F | G2 G G3 | !breath!=F3 G3 | A6 |] %27
w: |Si- cut|e- * * rat in prin-|ci- pi- o et|sae- cu- la sae- cu-|lo- rum, a-|men, a-|men.|
V:3
 !stemless!D4 (!stemless!=F2 !stemless!A2 !stemless!G2) !stemless!G4 ||[M:6/8] z6 | G2 d G3 | z6 | %4
w: Spi- ri- * * tus||Do- mi- ni,||
 d3 (cB)A | G2 d G2 G | e3 d3 | cBA BGG | e3 d3 | c_Bc d (dd) | cBG A2 !fermata!A |: z6 | z3 ddd | %13
w: Spi- ri- * tus|Do- mi- ni re-|ple- vit|or- bem- ter- ra- rum, re-|ple- vit|or- bem ter- ra- rum, _|or- bem ter- ra- rum!||Al- le- lu-|
 (GAB) (cde) | f3 f3 :| %15
w: ia, _ _ al- * le-|lu- ia.|
 !stemless!d2 !stemless!d2 !stemless!d2 !stemless!d2 !stemless!d2 !stemless!d2 !stemless!d2 !stemless!d2 !stemless!d4 !stemless!d4 | %16
w: Iu- bi- la- te De- o om- nis ter- ra;|
 !stemless!d2 !stemless!d2 !stemless!d2 !stemless!d2 !stemless!d2 !stemless!d2 !stemless!d2 !stemless!d2 !stemless!c4 !stemless!B2 !stemless!B4 || %17
w: ser- vi- te Do- mi- no in lae- ti- ti- a.|
 !stemless!d2 !stemless!d2 !stemless!d2 !stemless!d2 !stemless!d2 !stemless!d2 !stemless!d2 !stemless!d2 !stemless!d4 | %18
w: Glo- ri- a Pa- tri et Fi- li- o|
 !stemless!d2 !stemless!d2 !stemless!d2 !stemless!d2 !stemless!d2 (!stemless!c2 !stemless!B2) !stemless!B4 || %19
w: et Spi- ri- tu- i Sanc- * to.|
[M:6/8] z6 | z6 | d3 G3 | (AG)A BAB | ddd c2 c | B2 B B3 | !breath!c3 e3 | f6 |] %27
w: ||Si- cut|nunc _ et sem- per et|sae- cu- la sae- cu-|lo- rum, a-|men, a-|men.|
V:4
 z14 ||[M:6/8] z6 | z6 | z6 | G,,2 D, G,,3 | z6 | G,,2 D, G,,2 G,, | A,,3 B,,3 | C,B,,C, D,D,D, | %9
w: ||||Do- mi- ni,||Do- mi- ni re-|ple- vit|or- bem ter- ra- rum, re-|
 _B,,3 C,3 | C,C,C, D,2 !fermata!D, |: z3 G,,G,,G,, | G,,A,,B,, (_B,,C,)D, | =F,3 C,3 | %14
w: ple vit|or- bem ter- ra- rum!|Al- le- lu-|ia, al- le- lu- * ia,|al- le-|
"^B" D,3 D,3 :| %15
w: lu- ia.|
 !stemless!G,,2 !stemless!G,,2 !stemless!G,,2 !stemless!G,,2 !stemless!G,,2 !stemless!G,,2 !stemless!A,,2 !stemless!A,,2 !stemless!D,4 !stemless!G,,4 | %16
w: Iu- bi- la- te De- o om- nis ter- ra;|
 !stemless!G,,2 !stemless!G,,2 !stemless!G,,2 !stemless!G,,2 !stemless!G,,2 !stemless!G,,2 !stemless!G,,2 !stemless!G,,2 !stemless!D,4 !stemless!G,,2 !stemless!G,,4 || %17
w: ser- vi- te Do- mi- no in lae- ti- ti- a.|
 !stemless!G,,2 !stemless!G,,2 !stemless!G,,2 !stemless!A,,2 !stemless!A,,2 !stemless!A,,2 !stemless!D,2 !stemless!G,,2 !stemless!G,,4 | %18
w: Glo- ri- a Pa- tri et Fi- li- o|
 !stemless!G,,2 !stemless!G,,2 !stemless!G,,2 !stemless!G,,2 !stemless!G,,2 (!stemless!D,2 !stemless!G,,2) !stemless!G,,4 || %19
w: et Spi- ri- tu- i Sanc- * to.|
[M:6/8] z6 | z6 | z6 | D,3 D,3 | G,,G,,G,, =F,,2 F,, | G,,2 G,, G,,3 | !breath!_B,,3 C,3 | D,6 |] %27
w: |||Si- cut|sae- cu- la sae- cu-|lo- rum, a-|men, a-|men.|

